X:1
T:Title
%%score { ( 1 4 ) | ( 2 3 ) }
L:1/8
M:6/8
K:Eb
V:1 treble nm="Grand Piano"
V:4 treble 
V:2 bass 
V:3 bass 
V:1
 z3 z2[Q:1/4=78] B | G2 E DE[A,DF] | E2- [CE-] [B,E]2 F | G2 [GB] [_Gd]2 [Gc] |[M:5/8] G2 F E2 | %5
[M:1/8] B |[M:3/4] e2 B A2 G | [C-G]3 [CF]2 [F,CF] | [F,DF]2 [B,FB]c dc |[M:5/8] B2- [EB-] [FB]2 | %10
[M:1/8] [B,DA] |[M:3/4] [B,EG]2 [B,EG]D- [DG][A,DF] | E6 | G2 [GB] [_Gd]2 [Gc] |[M:5/8] G2 F E2 | %15
[M:1/8] B |[M:3/4] e2 B A2 G | [C-G]3 [CF]2[K:bass] [_G,CE] | %18
 [G,B,E]2[K:treble] [B,EG] [B,DG]2 [A,DF] |[M:5/8] E2- [CE-] [B,E]2 |] %20
V:2
 z3 z2 B, | z3 .F,3 | z2 A, G,2 [E,A,D] | [E,B,E]2 [E,B,] [E,=A,]2 [E,A,] |[M:5/8] E,2 A, G,2 | %5
[M:1/8] [F,A,D] |[M:3/4] [E,G,E]2 [E,_DE] [E,CE]2 [E,B,E] | z2 =E, F,2 =A,, | z2 z =A, z2 | %9
[M:5/8] F,-F,- F,3 |[M:1/8] B,, |[M:3/4] E,2 .E,2 B,B,, | z2 A, G,2 [E,A,D] | %13
 [E,B,E]2 [E,B,] [E,=A,]2 [E,A,] |[M:5/8] E,2 A, G,2 |[M:1/8] [F,A,D] | %16
[M:3/4] [E,G,E]2 [E,_DE] [E,CE]2 [E,B,E] | z2 E, F,2 =A,, | B,,2 B,, B,,2 B,, |[M:5/8] z2 A, G,2 |] %20
V:3
 x6 | G,2 E, [B,,B,]-[B,,G,B,]B,, | E,6 | x6 |[M:5/8] x5 |[M:1/8] x |[M:3/4] x6 | A,,6 | %8
 B,,2 D,[F,F]- [F,B,F][F,E] |[M:5/8] B,,2 C, D,2 |[M:1/8] x |[M:3/4] z2 z .B,,3 | E,6 | x6 | %14
[M:5/8] x5 |[M:1/8] x |[M:3/4] x6 | A,,6 | x6 |[M:5/8] E,-E,- E,3 |] %20
V:4
 x6 | x6 | .G,3 z3 | x6 |[M:5/8] [B,B]-[B,B]- [B,B]3 |[M:1/8] x |[M:3/4] x6 | A,2 z2 z2 | x6 | %9
[M:5/8] D2 z z2 |[M:1/8] x |[M:3/4] z2 z [A,F] z2 | G,2 C B,2 F | x6 |[M:5/8] [B,B]-[B,B]- [B,B]3 | %15
[M:1/8] x |[M:3/4] x6 | A,2 z2 z2[K:bass] | x2[K:treble] x4 |[M:5/8] G,2 z z2 |] %20

